X: 20361
M: 6/8
L: 1/8
K: D
|:\
d3 A3 | BAG FED | GAB ABc | d3 d2A :|\
d2d e2f | d2d cBA | d2d e2f | d3 c2A |\
d2d e2f | g2f fed | cBA ABc | d3 d2A |]
|:\
d3 A3 | BAG FED | GAB ABc | d3 d2A :|\
f3 f3 | efe dcB | ABA GFE | D3 D2A |\
d2e f2g | fed cBA | d2e f2a | gec d2A |]
|:\
d3 A3 | BAG FED | GAB ABc | d3 d2A :|\
|:\
d3 A3 | BAG FED | GAB ABc | d3 d2A :|\
f3 f3 | efe dcB | ABA GFE | D3 D2A |\
dcd Bcd | e2d cBA | dcd Bcd | edc d2A |]
|:\
d3 A3 | BAG FED | GAB ABc | d3 d2A :|\
a2f f2d | A2a agf | g2e e2c | A2g gfe |\
f2d g2e | a2f bag | fed edc | d3 d2A |]
|:\
d3 A3 | BAG FED | GAB ABc | d3 d2A :|\
f3 f3 | efe dcB | ABA GFE | D3 D2A |\
a2f a2f | efg fed | a2f a2f | gec d2A |]
|:\
d3 A3 | BAG FED | GAB ABc | d3 d2A :|\
f/g/af d2f | e/f/ge c2e | f/g/af d2f | edc d2g |\
f/g/af d2f | e/f/ge c2e | d2f a2f | gec d2A |]
|:\
d3 A3 | BAG FED | GAB ABc | d3 d2A :|\
f2f fef | g2g g2z | fga agf | e2e e2z |\
d2f e2f | d2e d2c | B2A B2c | d2d d2A |]
|:\
d3 A3 | BAG FED | GAB ABc | d3 d2A :|\
f3 f3 | efe dcB | ABA GFE | D3 D2A |\
d2A d2f | d2A d2f | aaa a2f | d3 D2A |]
|:\
d3 A3 | BAG FED | GAB ABc | d3 d2A :|\
d2A F2A | d2A F2A | d2d dcd | e3 e3 |\
f2e d2c | B2d A2F | GAB Adc | d3 d2A |]
|:\
d3 A3 | BAG FED | GAB ABc | d3 D3 :|\
y6 y6 y6 y6 y6 y6 y6 y6 y6 y6 y6 y6 y6 y6 y6 y6 y6 y6 y6 y6



